!!!COM: Palestrina, Giovanni Perluigi da
!!!OPR: Missa Tu es Petrus (1601)
!!!OTL: Benedictus
**kern	**kern	**kern	**kern	**kern	**kern
*Ibass	*Itenor	*Itenor	*Icalto	*Icalto	*Icant
!Bassus	!Tenor 2	!Tenor 1	!Altus 2	!Altus 1	!Cantus
*clefF4	*clefGv2	*clefGv2	*clefG2	*clefG2	*clefG2
*k[]	*k[]	*k[]	*k[]	*k[]	*k[]
*G:mix	*G:mix	*G:mix	*G:mix	*G:mix	*G:mix
*M4/2	*M4/2	*M4/2	*M4/2	*M4/2	*M4/2
=1	=1	=1	=1	=1	=1
1r	1r	1d	0r	1r	0r
[1G	1d	1B	.	[1g	.
=2	=2	=2	=2	=2	=2
2G]	1B	1d	0r	2g]	0r
2G	.	.	.	2g	.
1C	1c	1e	.	1g	.
=3	=3	=3	=3	=3	=3
0G	0B	0d	1r	1g	1dd
.	.	.	[1g	2r	1b
.	.	.	.	2g	.
=4	=4	=4	=4	=4	=4
0r	0r	0r	2g]	1b	1dd
.	.	.	2g	.	.
.	.	.	1c	[1cc	1ee
=5	=5	=5	=5	=5	=5
2r	1r	0r	1.g	2cc]	[0dd
2G	.	.	.	4b	.
.	.	.	.	4a	.
4G	2r	.	.	1b	.
4A	.	.	.	.	.
4B	2d	.	2g	.	.
4c	.	.	.	.	.
=6	=6	=6	=6	=6	=6
1d	4d	2r	4f	1a	0dd]
.	4e	.	4g	.	.
.	4f	2d	4a	.	.
.	4g	.	4g	.	.
2D	2.a	4d	4f	1r	.
.	.	4e	4e	.	.
2D	.	4f	2d	.	.
.	4g	4g	.	.	.
=7	=7	=7	=7	=7	=7
4D	1f	1a	2d	0r	0r
4E	.	.	.	.	.
4F	.	.	2A	.	.
4G	.	.	.	.	.
2.A	1e	2a	4A	.	.
.	.	.	4B	.	.
.	.	2a	4c	.	.
4B	.	.	4d	.	.
=8	=8	=8	=8	=8	=8
2c	2r	2g	2e	0r	0r
2d	2d	2.f	2f	.	.
1B-	4d	.	1d	.	.
.	4e	4e	.	.	.
.	4f	[2d	.	.	.
.	4g	.	.	.	.
=9	=9	=9	=9	=9	=9
1A	2.a	2d]	1e	0r	0r
.	.	2c#	.	.	.
.	4g	.	.	.	.
2r	[1f	1d	2r	.	.
2D	.	.	2a	.	.
=10	=10	=10	=10	=10	=10
4D	1f]	2r	4a	0r	0r
4E	.	.	4g	.	.
4F	.	2A	4a	.	.
4G	.	.	4b	.	.
2.A	2e	4A	[1cc	.	.
.	.	4B	.	.	.
.	2A	4c	.	.	.
4B	.	4d	.	.	.
=11	=11	=11	=11	=11	=11
1c	4A	2.e	2cc]	0r	0r
.	4B	.	.	.	.
.	4c	.	2g	.	.
.	4d	4f	.	.	.
1c	2.e	2g	1cc	.	.
.	.	4c	.	.	.
.	4f	4d	.	.	.
=12	=12	=12	=12	=12	=12
0r	2g	4e	2b	0r	0r
.	.	4d	.	.	.
.	2a	4c	1cc	.	.
.	.	4B	.	.	.
.	1f	2A	.	.	.
.	.	[2a	4b	.	.
.	.	.	4a	.	.
=13	=13	=13	=13	=13	=13
1r	1e	2a]	1b	0r	0r
.	.	2g#	.	.	.
2r	2r	1a	1a	.	.
2d	2f	.	.	.	.
=14	=14	=14	=14	=14	=14
2.c	2.e	2r	0r	0r	0r
.	.	2a	.	.	.
4A	4c	.	.	.	.
2B	2d	2.g	.	.	.
[2c	[2e	.	.	.	.
.	.	4e	.	.	.
=15	=15	=15	=15	=15	=15
4c]	4e]	2g	0r	0r	0r
4B	4d	.	.	.	.
4A	4c	2.f	.	.	.
4G	4B	.	.	.	.
2F	2A	.	.	.	.
.	.	4e	.	.	.
[2G	2B	4d	.	.	.
.	.	4c	.	.	.
=16	=16	=16	=16	=16	=16
4G]	1d	4B	2r	0r	0r
4F	.	4A	.	.	.
2D	.	1d	2a	.	.
2E	1r	.	2.g	.	.
2E	.	2c#	.	.	.
.	.	.	4e	.	.
=17	=17	=17	=17	=17	=17
2D	0r	1d	2f	0r	0r
2G	.	.	2.g	.	.
2B	.	1r	.	.	.
.	.	.	4f	.	.
2c	.	.	4e	.	.
.	.	.	4d	.	.
=18	=18	=18	=18	=18	=18
2A	2r	0r	2c	0r	0r
1d	2a	.	2f	.	.
.	2.g	.	1e	.	.
2c	.	.	.	.	.
.	4e	.	.	.	.
=19	=19	=19	=19	=19	=19
2.d	2.f	1r	2d	0r	0r
.	.	.	2dd	.	.
8c	8e	.	.	.	.
8B	8d	.	.	.	.
1A	2e	2r	2.cc	.	.
.	2f	2a	.	.	.
.	.	.	4a	.	.
=20	=20	=20	=20	=20	=20
0r	2.e	2.g	2b	0r	0r
.	.	.	1cc	.	.
.	4c	4e	.	.	.
.	2d	2f	.	.	.
.	[2e	[2g	4b	.	.
.	.	.	4a	.	.
=21	=21	=21	=21	=21	=21
0r	4e]	4g]	2b	0r	0r
.	4d	4f	.	.	.
.	4c	4e	2.cc	.	.
.	4B	4d	.	.	.
.	4A	1e	.	.	.
.	4B	.	4b	.	.
.	4c	.	[2a	.	.
.	4A	.	.	.	.
=22	=22	=22	=22	=22	=22
2r	2B	1d	2a]	0r	0r
2d	2B	.	2g#	.	.
2.c	2A	1e	2a	.	.
.	2c	.	2a	.	.
4A	.	.	.	.	.
=23	=23	=23	=23	=23	=23
2B	2d	2r	2.g	0r	0r
2.c	2e	2c	.	.	.
.	.	.	4e	.	.
.	2c	2.e	2g	.	.
4B	.	.	.	.	.
4A	[2c	.	[2a	.	.
4G	.	4e	.	.	.
=24	=24	=24	=24	=24	=24
2F	2c]	1d	2a]	0r	0r
2G	2B	.	1g	.	.
1D	2.A	2.d	.	.	.
.	.	.	2f#	.	.
.	4A	4d	.	.	.
=25	=25	=25	=25	=25	=25
[0G	1G	1B	1g	1r	1dd
.	1r	1r	2r	1g	1b
.	.	.	[2g	.	.
=26	=26	=26	=26	=26	=26
1G]	0r	0r	2g]	1b	1dd
.	.	.	2g	.	.
1r	.	.	4c	[1cc	1ee
.	.	.	4d	.	.
.	.	.	4e	.	.
.	.	.	4f#	.	.
=27	=27	=27	=27	=27	=27
0r	1r	0r	2.g	2cc]	2dd
.	.	.	.	4b	2g
.	.	.	4f	4a	.
.	2r	.	2e	[1b	4g
.	.	.	.	.	4a
.	2G	.	2d	.	4b
.	.	.	.	.	4cc
=28	=28	=28	=28	=28	=28
0r	4G	0r	2r	1b]	1dd
.	4A	.	.	.	.
.	4B	.	2d	.	.
.	4c	.	.	.	.
.	1d	.	4d	1a	2dd
.	.	.	4e	.	.
.	.	.	4f	.	2a
.	.	.	4g	.	.
=29	=29	=29	=29	=29	=29
0r	2d	0r	2.a	1r	4a
.	.	.	.	.	4b
.	2A	.	.	.	4cc
.	.	.	4b	.	4dd
.	4A	.	1cc	2r	2.ee
.	4B	.	.	.	.
.	4c	.	.	2e	.
.	4d	.	.	.	4ff
=30	=30	=30	=30	=30	=30
0r	2.e	0r	1b	4e	2gg
.	.	.	.	4f	.
.	.	.	.	4g	2ee
.	4f	.	.	4a	.
.	2g	.	1r	2b	2dd
.	2a	.	.	[2cc	4cc
.	.	.	.	.	4b
=31	=31	=31	=31	=31	=31
0r	1f	0r	0r	4cc]	1a
.	.	.	.	4b	.
.	.	.	.	1a	.
.	1e	.	.	.	1b
.	.	.	.	2g#	.
=32	=32	=32	=32	=32	=32
0r	2r	0r	1r	1a	2cc
.	2d	.	.	.	2ff
.	2.c	.	2r	1r	2.ee
.	.	.	2a	.	.
.	4A	.	.	.	4cc
=33	=33	=33	=33	=33	=33
0r	2B	0r	2.g	0r	2dd
.	2.c	.	.	.	2.ee
.	.	.	4e	.	.
.	.	.	2g	.	.
.	4B	.	.	.	4dd
.	4A	.	[2a	.	4cc
.	4G	.	.	.	4b
=34	=34	=34	=34	=34	=34
0r	2F	0r	4a]	2r	2a
.	.	.	4g	.	.
.	2F	.	4f	2a	2cc
.	.	.	4e	.	.
.	2G	.	2d	2.g	2b
.	2c	.	2e	.	2g
.	.	.	.	4e	.
=35	=35	=35	=35	=35	=35
0r	2A	0r	2c	2f	2a
.	2G	.	2d	2.g	2b
.	[1c	.	2.e	.	2cc
.	.	.	.	4f	.
.	.	.	.	4e	[2ee
.	.	.	4f	4d	.
=36	=36	=36	=36	=36	=36
0r	2c]	0r	1g	2c	2ee]
.	2B	.	.	2d	1dd
.	2A	.	2.a	1e	.
.	2A	.	.	.	2cc#
.	.	.	4a	.	.
=37	=37	=37	=37	=37	=37
0r	1d	0r	1a	1f#	1dd
.	1r	.	1r	1r	1r
=38	=38	=38	=38	=38	=38
1G	1B	1d	1b	1g	1dd
2G	1B	2d	2b	2g	1dd
2G	.	2d	2g	2g	.
=39	=39	=39	=39	=39	=39
4D	2A	1d	4a	1f	1dd
4E	.	.	4g	.	.
4F	1a	.	4a	.	.
4G	.	.	4b	.	.
4A	.	2.c	2cc	2.e	2r
4B	.	.	.	.	.
2c	2g	.	2g	.	2cc
.	.	4B	.	4d	.
=40	=40	=40	=40	=40	=40
1F	2.f	1A	4a	1c	2cc
.	.	.	4f	.	.
.	.	.	2.a	.	2cc
.	4e	.	.	.	.
1G	[1d	1B	.	1g	2.b
.	.	.	4g	.	.
.	.	.	[2g	.	.
.	.	.	.	.	4cc
=41	=41	=41	=41	=41	=41
0D	0d]	0A	2g]	0a	0dd
.	.	.	4f#	.	.
.	.	.	4e	.	.
.	.	.	1f#	.	.
=42	=42	=42	=42	=42	=42
0G	0d	0G	0g	0b	0dd
==	==	==	==	==	==
*-	*-	*-	*-	*-	*-
!!!CDT: 1525/^1526/-1594/2/2
!!!OCY: Italia
!!!AGN: Mass (Paraphrase)
!!!AST: renaissance, vocal
!!!ASW: Antiphon
!!!PWK: Masses, Book 12
!!!RNB: Cadence finals: C
!!!YOR: Le Opere Complete, v. 29, p. 123
!!!YOO: Rome, Italy: Fratelli Scalera
!!!END: 1992//
!!!EED: John Miller
!!!YEC: Copyright 2000, John Miller
!!!YEN: United States of America
!!!YEM: Rights to all derivative electronic formats reserved.
!!!YEM: Refer to licensing agreement for further details.
!!!YEM: This file must be accompanied by the licensing agreement.
!!!YEM: A copy of the licensing agreement may be found at http://www.music-cog.ohio-state.edu/HumdrumDatabases/Palestrina/license.txt
!!!EMD: converted to Humdrum by Bret Aarden
